X: 24
T: No_20_Sun_Dance_Song_(c).krn
N: Derived from No_20_Sun_Dance_Song_(c).krn
%%abc-version 2.0
%%abcx-abcm2ps-target-version 5.9.1 (29 Sep 2008)
%%abc-creator hum2abc beta
%%abcx-conversion-date 2019/03/15 08:36:49
%%humdrum-veritas 1102987787
%%humdrum-veritas-data 478203621
%%linebreak <none>
%%barnumbers 0
L: 1/8
M: 2/4
%%staves {1 2}
V: 1 clef=bass
V: 2 clef=bass
K: C
[V:1] [K:clef=bass][M:2/4]E2D2 | 
[V:2] [K:clef=bass][M:2/4]G,,2G,,2 | 
[V:1] ED A,E, | 
[V:2] G,,2G,,2 | 
[V:1] E2D2 | 
[V:2] G,,2G,,2 | 
[V:1] ED A,E, ||  
[V:2] z4 ||  
[V:1] [M:3/4]A,/E,D,/D,4 ||  
[V:2] [M:3/4]z6 ||  
[V:1] [M:2/4]CD/A,/ C/G,/F, | 
[V:2] [M:2/4]z4 | 
[V:1] D,2F,D, | 
[V:2] z4 | 
[V:1] A,,2D,C, | 
[V:2] z4 | 
[V:1] A,,C,/A,,/A,,2 | 
[V:2] z4 | 
[V:1] A,,4 |]  
[V:2] z4 |]  



